X: 419
T: Mantian xingxing yikeming
%%abc-version 2.0
%%abcx-abcm2ps-target-version 5.9.1 (29 Sep 2008)
%%abc-creator hum2abc beta
%%abcx-conversion-date 2013/10/02 07:52:30
%%abc-edited-by Helmut Schaffrath
%%humdrum-veritas 1652958847
%%humdrum-veritas-data 997431174
%%continueall 1
%%barnumbers 0
L: 1/16
M: 2/4
K: Bb
c' c' c' f'2< c'2 c' [I:setbarnb 1]| 
c' b g fc4 | 
g2f4f b | 
g f g dc4 | 
c' c' c' f'2< c'2 c' | 
c' b g fc4 | 
g2f4f b | 
g2f6 |]  



